Papirus/32x32/mimetypes/application-x-sms-rom.svg

<svg width="32" height="32" version="1.1" xmlns="http://www.w3.org/2000/svg">
 <path d="m6.375 3c-0.76175 0-1.375 0.6244-1.375 1.4v25.2c0 0.77504 0.61325 1.4 1.375 1.4h19.25c0.7612 0 1.375-0.62496 1.375-1.4v-17.6l-7-2-2-7z" style="opacity:.2"/>
 <path d="m6.375 2c-0.76175 0-1.375 0.6244-1.375 1.4v25.2c0 0.77504 0.61325 1.4 1.375 1.4h19.25c0.7612 0 1.375-0.62496 1.375-1.4v-17.6l-7-2-2-7z" style="fill:#4f4f4f"/>
 <path d="m27 12-9-9v7.59375c0 0.779625 0.62775 1.40625 1.40625 1.40625z" style="opacity:.2"/>
 <path d="M 6.375,2 C 5.61325,2 5,2.6247906 5,3.4003906 v 1 C 5,3.6247906 5.61325,3 6.375,3 H 18 V 2 Z" style="fill:#ffffff;opacity:.1"/>
 <path d="m27 11-9-9v7.59375c0 0.779625 0.62775 1.40625 1.40625 1.40625z" style="fill:#696969"/>
 <g>
  <path d="m14.498873 13.0039c-3.008404-2e-6 -5.498872 2.492048-5.498872 5.499999 0 3.007952 2.490474 5.50586 5.498872 5.5l2.002252-0.0039c0.30581-5.96e-4 0.502029 0.196203 0.502029 0.501953 0 0.305752-0.196262 0.493982-0.502029 0.494141l-7.501124 0.0039v2.169921l7.501124-0.0039c1.476929-7.68e-4 2.664464-1.187356 2.664464-2.664062 0-1.476705-1.187538-2.676705-2.664464-2.673828l-2.002252 0.0039c-1.83727 0.0036-3.328624-1.491127-3.328624-3.328125s1.49135-3.337892 3.328624-3.33789l7.501127-0.0039v-2.162109zm0 2.833984c-1.476926-2e-6 -2.664464 1.189311-2.664464 2.666015 0 1.476705 1.187542 2.666939 2.664464 2.664062l2.002252-0.0039c1.837274-0.0036 3.336441 1.500894 3.336441 3.337891 0 1.836998-1.499163 3.32717-3.336441 3.328125l-7.501124 0.0039v2.169922l7.501124-0.0039c3.008408-0.001564 5.498875-2.490094 5.498875-5.498047 0-3.007952-2.490473-5.50586-5.498875-5.5l-2.002253 0.0039c-0.305809 5.96e-4 -0.502026-0.196203-0.502026-0.501953 0-0.305753 0.196262-0.501812 0.502026-0.501953l7.501128-0.0039v-2.164062z" style="opacity:.2"/>
  <path d="m14.498872 12.003907c-3.008404-2e-6 -5.498872 2.492048-5.498872 5.499999 0 3.007952 2.490474 5.505879 5.498872 5.5l2.002253-0.0039c0.30581-5.98e-4 0.502029 0.196203 0.502029 0.501953 0 0.305752-0.196262 0.493981-0.502029 0.494141l-7.501125 0.0039v2.169921l7.501125-0.0039c1.476929-7.69e-4 2.664464-1.187356 2.664464-2.664062 0-1.476705-1.187538-2.67671-2.664464-2.673828l-2.002253 0.0039c-1.83727 0.0036-3.328624-1.491127-3.328624-3.328125s1.49135-3.337892 3.328624-3.33789l7.501128-0.003907v-2.162109zm0 2.833984c-1.476926-2e-6 -2.664464 1.189311-2.664464 2.666015 0 1.476705 1.187542 2.666944 2.664464 2.664062l2.002253-0.0039c1.837274-0.0036 3.336441 1.500894 3.336441 3.337891 0 1.836998-1.499163 3.327168-3.336441 3.328125l-7.501125 0.0039v2.169922l7.501125-0.0039c3.008408-0.001582 5.498875-2.490107 5.498875-5.49806 0-3.007952-2.490473-5.50587-5.498875-5.5l-2.002254 0.0039c-0.305809 5.97e-4 -0.502026-0.196203-0.502026-0.501953 0-0.305753 0.196262-0.501813 0.502026-0.501953l7.501129-0.0039v-2.164062z" style="fill:#eb675e"/>
 </g>
</svg>

<svg xmlns="http://www.w3.org/2000/svg" width="32" height="32" version="1.1">
 <path style="opacity:0.2" d="m6.375 3c-0.76175 0-1.375 0.6244-1.375 1.4v25.2c0 0.77504 0.61325 1.4 1.375 1.4h19.25c0.7612 0 1.375-0.62496 1.375-1.4v-17.6l-7-2-2-7z"/>
 <path style="fill:#4f4f4f" d="m6.375 2c-0.76175 0-1.375 0.6244-1.375 1.4v25.2c0 0.77504 0.61325 1.4 1.375 1.4h19.25c0.7612 0 1.375-0.62496 1.375-1.4v-17.6l-7-2-2-7z"/>
 <path style="opacity:0.2" d="m27 12-9-9v7.59375c0 0.779625 0.62775 1.40625 1.40625 1.40625z"/>
 <path style="fill:#ffffff;opacity:0.1" d="M 6.375,2 C 5.61325,2 5,2.6247906 5,3.4003906 v 1 C 5,3.6247906 5.61325,3 6.375,3 H 18 V 2 Z"/>
 <path style="fill:#696969" d="m27 11-9-9v7.59375c0 0.779625 0.62775 1.40625 1.40625 1.40625z"/>
 <path style="opacity:0.1" d="M 14.5,13 C 11.5,13 9,15.5 9,18.5 9,21.5 11.5,24 14.5,24 L 16.5,24 C 16.8,24 17,24.2 17,24.5 17,24.8 16.8,25 16.5,25 L 9,25 V 27.2 L 16.5,27.2 C 18,27.2 19.2,26 19.2,24.5 19.2,23 18,21.8 16.5,21.8 L 14.5,21.8 C 12.7,21.8 11.2,20.3 11.2,18.5 11.2,16.7 12.7,15.2 14.5,15.2 L 22,15.2 V 13 Z M 14.5,15.8 C 13,15.8 11.8,17 11.8,18.5 11.8,20 13,21.2 14.5,21.2 L 16.5,21.2 C 18.3,21.2 19.8,22.7 19.8,24.5 19.8,26.3 18.3,27.8 16.5,27.8 L 9,27.8 V 30 L 16.5,30 C 19.5,30 22,27.5 22,24.5 22,21.5 19.5,19 16.5,19 L 14.5,19 C 14.2,19 14,18.8 14,18.5 14,18.2 14.2,18 14.5,18 L 22,18 V 15.8 Z"/>
 <path style="fill:#eb675e" d="M 14.5,12 C 11.5,12 9,14.5 9,17.5 9,20.5 11.5,23 14.5,23 L 16.5,23 C 16.8,23 17,23.2 17,23.5 17,23.8 16.8,24 16.5,24 L 9,24 V 26.2 L 16.5,26.2 C 18,26.2 19.2,25 19.2,23.5 19.2,22 18,20.8 16.5,20.8 L 14.5,20.8 C 12.7,20.8 11.2,19.3 11.2,17.5 11.2,15.7 12.7,14.2 14.5,14.2 L 22,14.2 V 12 Z M 14.5,14.8 C 13,14.8 11.8,16 11.8,17.5 11.8,19 13,20.2 14.5,20.2 L 16.5,20.2 C 18.3,20.2 19.8,21.7 19.8,23.5 19.8,25.3 18.3,26.8 16.5,26.8 L 9,26.8 V 29 L 16.5,29 C 19.5,29 22,26.5 22,23.5 22,20.5 19.5,18 16.5,18 L 14.5,18 C 14.2,18 14,17.8 14,17.5 14,17.2 14.2,17 14.5,17 L 22,17 V 14.8 Z"/>
</svg>
